X:281
T: Renxin qixiang gongchandang
N: C1778
O: China, Jiangsu Rugao
S: III, 427]
R: Wuge, Daohualan]
M: 2/4
L: 1/16
K: G
A2d2d2BA | dBBAGEGA | dBA6
A2d2d2BA | dBBAGEGA | dBA6
DD2EG2GE | AdBdG2G2
A2dBABAF | ABADE2E2
DB,DED4 | ABAFE2E2
ABAFFEDF | E8

